packages/icons/src/components/Logo/assets/light/fedora.svg

<svg width="21" height="20" viewBox="0 0 21 20" fill="none" xmlns="http://www.w3.org/2000/svg">
<path d="M10.8065 0.25C5.34004 0.25 0.911456 4.6115 0.90159 9.99605H0.899841V17.5401H0.90159C0.904214 18.7615 1.90984 19.75 3.15091 19.75H10.8045C16.2719 19.7466 20.6995 15.3855 20.6995 10.0039C20.6995 4.6194 16.269 0.257892 10.7946 0.257892L10.8065 0.25ZM12.818 4.26326C14.4804 4.26326 16.05 5.51616 16.05 7.24557C16.05 7.40589 16.0509 7.5664 16.0243 7.74822C15.9782 8.20814 15.5514 8.53863 15.0866 8.47382C14.6218 8.40822 14.3063 7.97364 14.3924 7.51894C14.4002 7.46705 14.403 7.38556 14.403 7.24548C14.403 6.26505 13.5885 5.88701 12.8187 5.88701C12.0487 5.88701 11.3546 6.52451 11.3536 7.24548C11.367 8.0796 11.3536 8.90681 11.3536 9.74044L12.7831 9.72991C13.8989 9.70716 13.9117 11.3617 12.796 11.3538L11.3547 11.3643C11.3512 12.0352 11.3599 11.9139 11.3564 12.2518C11.3564 12.2518 11.3685 13.0724 11.3436 13.6941C11.1711 15.5212 9.59155 16.9813 7.69344 16.9813C5.68089 16.9813 4.0235 15.3624 4.0235 13.3764C4.08392 11.3343 5.73811 9.72722 7.82169 9.74597L8.98384 9.73735V11.3582L7.82169 11.3688H7.81556C6.67117 11.4021 5.68956 12.1679 5.67082 13.3754C5.67082 14.4754 6.57331 15.3564 7.69323 15.3564C8.81197 15.3564 9.70775 14.5549 9.70775 13.3774L9.706 7.2381C9.70657 7.12415 9.71038 7.03359 9.72308 6.9079C9.9119 5.40638 11.2759 4.262 12.8198 4.262L12.818 4.26326Z" fill="#51A2DA"/>
</svg>

<svg xmlns="http://www.w3.org/2000/svg" width="21" height="20" fill="none" viewBox="0 0 21 20">
    <path fill="#51a2da" d="M10.807.25C5.34.25.91 4.612.902 9.996H.9v7.544h.002c.002 1.222 1.008 2.21 2.249 2.21h7.654c5.467-.003 9.895-4.364 9.895-9.746 0-5.385-4.431-9.746-9.905-9.746zm2.011 4.013c1.662 0 3.232 1.253 3.232 2.983 0 .16 0 .32-.026.502a.824.824 0 0 1-.937.726.815.815 0 0 1-.695-.955 2 2 0 0 0 .011-.274c0-.98-.815-1.358-1.584-1.358s-1.464.638-1.465 1.358c.013.835 0 1.662 0 2.495l1.43-.01c1.115-.023 1.128 1.632.012 1.624l-1.441.01c-.004.671.005.55.001.888 0 0 .012.82-.012 1.442-.173 1.827-1.752 3.287-3.65 3.287-2.013 0-3.67-1.619-3.67-3.605.06-2.042 1.714-3.649 3.798-3.63l1.162-.009v1.621l-1.162.01h-.006c-1.145.034-2.126.8-2.145 2.007 0 1.1.902 1.981 2.022 1.981s2.015-.801 2.015-1.979l-.002-6.139c0-.114.004-.204.017-.33.189-1.502 1.553-2.646 3.097-2.646z"/>
</svg>
